X: 29988
T: Octopus, The
R: polka
M: 2/4
K: Bminor
|:B>d cB|cA BA|F>d cB|cd ed|
B>d cB|cA BA|F>d cB|1 cB BA:|2 cB Bd||
|:e>f ec|df ed|ca a^g|af ec|
e>f ec|df ed|cA Bd|1 (3f/g/f/ e (3f/g/f/ e:|2 ef ec||

